X: 110
T: Fuge la morie
N: Derived from Mar3009-Fuge_la_morie.krn
C: Johannes Martini
%%abc-version 2.0
%%abcx-abcm2ps-target-version 5.9.1 (29 Sep 2008)
%%abc-creator hum2abc beta
%%abcx-conversion-date 2019/02/17 07:19:43
%%abc-edited-by Jesse Rodin
%%abc-edited-by Chris Gage 10-30-2014
%%abcx-initial-encoding-date 2015/03/01/
%%humdrum-veritas 3445300095
%%humdrum-veritas-data 144504242
%%linebreak <none>
%%barnumbers 0
L: 1/4
M: 2/1
Q: 1/2=120
V: 1 clef=treble
V: 2 clef=treble-8
V: 3 clef=bass
K: F
[V:1] G4F4 | 
[V:2] z8 | 
[V:3] z8 | 
[V:1] G3AB2c2 | 
[V:2] z8 | 
[V:3] z8 | 
[V:1] A4G2B2- | 
[V:2] z4G4 | 
[V:3] z8 | 
[V:1] B2A2G2B2- | 
[V:2] F4G3A | 
[V:3] z8 | 
[V:1] BAG4^F2 | 
[V:2] B2c2A4 | 
[V:3] z8 | 
[V:1] G4z4 | 
[V:2] G2B4A2 | 
[V:3] G,,4F,,4 | 
[V:1] z8 | 
[V:2] G2B3AG2- | 
[V:3] G,,3A,,B,,2C,2 | 
[V:1] A4B4 | 
[V:2] G2^F2G4 | 
[V:3] A,,4G,,4 | 
[V:1] A2F2G4 | 
[V:2] F2D2E4 | 
[V:3] D,4C,4 | 
[V:1] F3ED4 | 
[V:2] D4z2d2- | 
[V:3] D,3E,F,2G,2 | 
[V:1] z2G4F2 | 
[V:2] d2c2d2f2- | 
[V:3] E,4D,4 | 
[V:1] G2B4A2 | 
[V:2] f2e2f4 | 
[V:3] G,4F,4 | 
[V:1] B4z2G2 | 
[V:2] B4z4 | 
[V:3] G,3A,B,2C2 | 
[V:1] A2c2B2d2- | 
[V:2] c4d4- | 
[V:3] A,4G,4 | 
[V:1] dcB3AG2- | 
[V:2] d8 | 
[V:3] z4G,,3A,, | 
[V:1] GFEDE2D2 | 
[V:2] G8- | 
[V:3] B,,2C,4B,,2 | 
[V:1] E2G4^F2 | 
[V:2] G4A4 | 
[V:3] C,2_E,2D,4 | 
[V:1] G4z2A2- | 
[V:2] G4F3G | 
[V:3] G,,4D,3E, | 
[V:1] A2D2E2F2 | 
[V:2] A2B4A2 | 
[V:3] F,2G,4F,2 | 
[V:1] D4E4 | 
[V:2] B2d4^c2 | 
[V:3] G,2B,2A,4 | 
[V:1] D4F2G2 | 
[V:2] d4B4 | 
[V:3] D,4z2G,2- | 
[V:1] A3Bc2d2- | 
[V:2] A4z4 | 
[V:3] G,2F,2E,2D,2 | 
[V:1] d2c2d2cB | 
[V:2] A4B2AG | 
[V:3] F,4B,,4 | 
[V:1] A4F2G2 | 
[V:2] F4D2E2 | 
[V:3] z2D,4C,2 | 
[V:1] B2c2A4 | 
[V:2] G2A3EF2 | 
[V:3] B,,2A,,2D,4 | 
[V:1] G2B4AG | 
[V:2] G4E4 | 
[V:3] G,,4z2G,2 | 
[V:1] F4B4 | 
[V:2] D4z2G2- | 
[V:3] A,2B,4A,G, | 
[V:1] c4B2G2- | 
[V:2] G2F2G2B2- | 
[V:3] A,4G,4 | 
[V:1] G2F2G2A2- | 
[V:2] B2A2G2c2- | 
[V:3] z2D,2E,2F,2- | 
[V:1] A2GFG4 | 
[V:2] cAd4^c2 | 
[V:3] F,2E,D,E,4 | 
[V:1] !fermata!F8 | 
[V:2] !fermata!d8 | 
[V:3] !fermata!D,8 | 
[V:1] z8 | 
[V:2] G4B2c2 | 
[V:3] z4G,2A,2 | 
[V:1] z8 | 
[V:2] d4G2c2 | 
[V:3] B,A,G,F,E,4 | 
[V:1] z8 | 
[V:2] B2A3GB2- | 
[V:3] D,4C,2D,2 | 
[V:1] z8 | 
[V:2] B2AG^F3E | 
[V:3] _E,D,C,B,,A,,4 | 
[V:1] D4F2G2 | 
[V:2] G4A2B2 | 
[V:3] G,,4z4 | 
[V:1] A4D2G2 | 
[V:2] c2d3cB2 | 
[V:3] z8 | 
[V:1] F2E3DF2- | 
[V:2] A2G3FA2- | 
[V:3] z8 | 
[V:1] F2ED^C4 | 
[V:2] A2GFE4 | 
[V:3] z8 | 
[V:1] D8 | 
[V:2] D4A4 | 
[V:3] z2D,3E,F,2 | 
[V:1] z4G4 | 
[V:2] B2c4B2 | 
[V:3] G,2C,3D,E,2 | 
[V:1] F8 | 
[V:2] A2B4A2 | 
[V:3] F,2B,,3C,D,2 | 
[V:1] E8 | 
[V:2] G2A4G2 | 
[V:3] E,2A,,3B,,C,2 | 
[V:1] D4d4 | 
[V:2] F2G4F2 | 
[V:3] D,2G,,3A,,B,,2 | 
[V:1] c4A4 | 
[V:2] E2F4c2- | 
[V:3] C,2F,,3G,,A,,B,, | 
[V:1] G2B3AG2 | 
[V:2] c2d4cB | 
[V:3] C,2G,,3A,,B,,C, | 
[V:1] F2GAB2A2- | 
[V:2] A2B2d4 | 
[V:3] D,2B,,3C,D,E, | 
[V:1] A2GFE4 | 
[V:2] c3BG3A | 
[V:3] F,2C,3D,E,F, | 
[V:1] D3EFGA2- | 
[V:2] B3AF4 | 
[V:3] G,2D,3E,F,G, | 
[V:1] ABc2B2A2- | 
[V:2] z2A2B2c2- | 
[V:3] A,2F,2G,2F,2- | 
[V:1] AGG4^F2 | 
[V:2] cBAGA4 | 
[V:3] F,G,E,2D,4 | 
[V:1] G8 |]  
[V:2] G8 |]  
[V:3] G,,8 |]  



